X:1
T:Gilead (Toronto), 76.76.78.76
T:Gilead (Toronto), 76.76.78.76
T:Anonymous, before 1895
T:Public Domain Courtesy of the Cyber Hymnal™
C:Anonymous, before 1895
Z:Public Domain
Z:Courtesy of the Cyber Hymnal™
%%score ( 1 2 ) ( 3 4 )
L:1/8
Q:1/4=90
M:3/8
K:Bb
V:1 treble 
V:2 treble 
V:3 bass 
V:4 bass 
V:1
 [DB]2 [DF] | ([Fd]>[Ec])[DB] | [EB]2 (A/G/) | [DF]2 [DF] | [EG]2 [EG] | [DF]2 [EA] | [DB]3 | %7
S ([Fd]>[Ec])[DB] | ([Fd]>[Ec])[DB] | [EB]2 (A/G/) | [DF]2 F | [FB]2 [DB] | [Fd]2 [Ec] | %13
 !fermata![DB]3 | [DF]2 ([B,D]/[CE]/)!fine! | [DF]2 [DF] | (G>A)[EB] | [DF]2 [DF] | (GB) (A/G/) | %19
 [DF]2 [DB] | [Fd]2 [FB] | [Fc]3!D.S.! |] %22
V:2
 x3 | x3 | x2 E | x3 | x3 | x3 | x3 | x3 | x3 | x2 E | x2 F | x3 | x3 | x3 | x3 | x3 | E2 x | x3 | %18
 E2 E | x3 | x3 | x3 |] %22
V:3
 [B,,F,]2 [B,,B,] | [B,,B,]2 [B,,B,] | [E,G,]2 [E,B,] | [B,,B,]2 [B,,B,] | [E,B,]2 [E,B,] | %5
 [F,B,]2 [F,C] | [B,,B,]3 | [B,,B,]2 [B,,F,] | [B,,B,]2 [B,,F,] | [E,G,]2 [E,B,] | %10
 [B,,B,]2 [F,A,] | [D,B,]2 [B,,B,] | [F,B,]2 [F,A,] | !fermata![B,,B,]3 | [B,,B,]2 [B,,F,] | %15
 [B,,F,]2 [B,,B,] | [E,B,]2 [G,B,] | B,2 [B,,B,] | (B,G,)[E,B,] | [B,,B,]2 [B,,B,] | %20
 [B,,B,]2 [B,,B,] | [F,A,]3 |] %22
V:4
 x3 | x3 | x3 | x3 | x3 | x3 | x3 | x3 | x3 | x3 | x3 | x3 | x3 | x3 | x3 | x3 | x3 | B,2 x | %18
 E,2 x | x3 | x3 | x3 |] %22

